images/pages/mb_trading/frxgbpjpy.svg

<svg xmlns="http://www.w3.org/2000/svg" viewBox="-13498 -13022 40.15 26.496"><defs><style>.cls-1{fill:#41479b}.cls-2{fill:#f5f5f5}.cls-3{fill:#ff4b55}.cls-4{fill:#f8f8f8;stroke:#95989a;stroke-width:.3px}</style></defs><g id="Group_3025" data-name="Group 3025" transform="translate(6135 10786)"><g id="Group_3027" data-name="Group 3027" transform="translate(-19633 -23808)"><path id="Path_12210" data-name="Path 12210" class="cls-1" d="M27.519 18.355H.481A.482.482 0 0 1 0 17.874V.482A.486.486 0 0 1 .481 0h27.032a.482.482 0 0 1 .481.482v17.392a.474.474 0 0 1-.475.481z"/><path id="Path_12211" data-name="Path 12211" class="cls-2" d="M28 .482A.482.482 0 0 0 27.519 0h-2.16l-8.947 5.861V0h-4.829v5.861L2.641 0H.481A.486.486 0 0 0 0 .482v1.247l7.673 5.03H0v4.832h7.673L0 16.626v1.248a.482.482 0 0 0 .481.482h2.16l8.941-5.861v5.861h4.829v-5.862l8.941 5.861h2.16a.482.482 0 0 0 .481-.482v-1.247L20.322 11.6H28V6.764h-7.673L28 1.735z"/><g id="Group_3026" data-name="Group 3026"><path id="Path_12212" data-name="Path 12212" class="cls-3" d="M28 7.727H15.449V0h-2.9v7.727H0v2.9h12.551v7.727h2.9v-7.726H28z"/><path id="Path_12213" data-name="Path 12213" class="cls-3" d="M9.973 211.9L.2 218.248a.473.473 0 0 0 .47.416h.667L11.75 211.9z" transform="translate(-.189 -200.304)"/><path id="Path_12214" data-name="Path 12214" class="cls-3" d="M315.772 211.9H314l10.4 6.753a.479.479 0 0 0 .432-.471v-.4z" transform="translate(-296.828 -200.304)"/><path id="Path_12215" data-name="Path 12215" class="cls-3" d="M0 1.869l8.848 5.746h1.772L.279.9A.478.478 0 0 0 0 1.332z" transform="translate(0 -.851)"/><path id="Path_12216" data-name="Path 12216" class="cls-3" d="M301.877 6.764L311.672.4a.475.475 0 0 0-.465-.4h-.689L300.1 6.764z" transform="translate(-283.688)"/></g></g><g id="Group_3030" data-name="Group 3030" transform="translate(-19621 -23800)"><g id="Group_3029" data-name="Group 3029"><g id="Group_3028" data-name="Group 3028"><path id="Path_12217" data-name="Path 12217" class="cls-4" d="M27.524 18.346H.481A.482.482 0 0 1 0 17.864V.481A.486.486 0 0 1 .481 0h27.038A.482.482 0 0 1 28 .481v17.383a.474.474 0 0 1-.476.482z"/><ellipse id="Ellipse_179" data-name="Ellipse 179" class="cls-3" cx="5.311" cy="5.311" rx="5.311" ry="5.311" transform="translate(8.692 3.862)"/></g></g></g></g></svg>

<svg xmlns="http://www.w3.org/2000/svg" viewBox="-13498 -13022 40.15 26.496">
  <defs>
    <style>
      .cls-1 {
        fill: #41479b;
      }

      .cls-2 {
        fill: #f5f5f5;
      }

      .cls-3 {
        fill: #ff4b55;
      }

      .cls-4 {
        fill: #f8f8f8;
        stroke: #95989a;
        stroke-width: 0.3px;
      }
    </style>
  </defs>
  <g id="Group_3025" data-name="Group 3025" transform="translate(6135 10786)">
    <g id="Group_3027" data-name="Group 3027" transform="translate(-19633 -23808)">
      <path id="Path_12210" data-name="Path 12210" class="cls-1" d="M27.519,18.355H.481A.482.482,0,0,1,0,17.874V.482A.486.486,0,0,1,.481,0H27.513a.482.482,0,0,1,.481.482V17.874A.474.474,0,0,1,27.519,18.355Z" transform="translate(0 0)"/>
      <path id="Path_12211" data-name="Path 12211" class="cls-2" d="M28,.482A.482.482,0,0,0,27.519,0h-2.16L16.412,5.861V0H11.583V5.861L2.641,0H.481A.486.486,0,0,0,0,.482V1.729L7.673,6.759H0v4.832H7.673L0,16.626v1.248a.482.482,0,0,0,.481.482h2.16l8.941-5.861v5.861h4.829V12.494l8.941,5.861h2.16a.482.482,0,0,0,.481-.482V16.626L20.322,11.6H28V6.764H20.327L28,1.735Z" transform="translate(0 0)"/>
      <g id="Group_3026" data-name="Group 3026" transform="translate(0 0)">
        <path id="Path_12212" data-name="Path 12212" class="cls-3" d="M28,7.727H15.449V0h-2.9V7.727H0v2.9H12.551v7.727h2.9V10.628H28Z"/>
        <path id="Path_12213" data-name="Path 12213" class="cls-3" d="M9.973,211.9.2,218.248a.473.473,0,0,0,.47.416h.667L11.75,211.9Z" transform="translate(-0.189 -200.304)"/>
        <path id="Path_12214" data-name="Path 12214" class="cls-3" d="M315.772,211.9H314l10.4,6.753a.479.479,0,0,0,.432-.471v-.4Z" transform="translate(-296.828 -200.304)"/>
        <path id="Path_12215" data-name="Path 12215" class="cls-3" d="M0,1.869,8.848,7.615H10.62L.279.9A.478.478,0,0,0,0,1.332Z" transform="translate(0 -0.851)"/>
        <path id="Path_12216" data-name="Path 12216" class="cls-3" d="M301.877,6.764,311.672.4a.475.475,0,0,0-.465-.4h-.689L300.1,6.764Z" transform="translate(-283.688 0)"/>
      </g>
    </g>
    <g id="Group_3030" data-name="Group 3030" transform="translate(-19621 -23800)">
      <g id="Group_3029" data-name="Group 3029" transform="translate(0 0)">
        <g id="Group_3028" data-name="Group 3028" transform="translate(0 0)">
          <path id="Path_12217" data-name="Path 12217" class="cls-4" d="M27.524,18.346H.481A.482.482,0,0,1,0,17.864V.481A.486.486,0,0,1,.481,0H27.519A.482.482,0,0,1,28,.481V17.864A.474.474,0,0,1,27.524,18.346Z" transform="translate(0)"/>
          <ellipse id="Ellipse_179" data-name="Ellipse 179" class="cls-3" cx="5.311" cy="5.311" rx="5.311" ry="5.311" transform="translate(8.692 3.862)"/>
        </g>
      </g>
    </g>
  </g>
</svg>
